src/assets/icons/food-drink,fancy,zap.svg

<svg width="48" height="48" viewBox="0 0 48 48" fill="none" xmlns="http://www.w3.org/2000/svg">
<path opacity="0.2" d="M7.11826 19.8099L27.8577 46.8317C28.1485 47.2107 28.7543 47.005 28.7543 46.5273V24.7418C28.7543 24.3872 29.1132 24.1453 29.4419 24.2783L41.0034 28.958C41.4756 29.1491 41.8978 28.5942 41.5876 28.1901L20.8482 1.16825C20.5574 0.789302 19.9516 0.994981 19.9516 1.47268V23.2582C19.9516 23.6128 19.5927 23.8547 19.264 23.7217L7.7025 19.042C7.23028 18.8509 6.80809 19.4058 7.11826 19.8099Z" fill="black"/>
<path opacity="0.6" d="M7.11826 19.8099L27.8577 46.8317C28.1485 47.2107 28.7543 47.005 28.7543 46.5273V24.7418C28.7543 24.3872 29.1132 24.1453 29.4419 24.2783L41.0034 28.958C41.4756 29.1491 41.8978 28.5942 41.5876 28.1901L20.8482 1.16825C20.5574 0.789302 19.9516 0.994981 19.9516 1.47268V23.2582C19.9516 23.6128 19.5927 23.8547 19.264 23.7217L7.7025 19.042C7.23028 18.8509 6.80809 19.4058 7.11826 19.8099Z" fill="black"/>
<path fill-rule="evenodd" clip-rule="evenodd" d="M28.7539 25.547V24.7418C28.7539 24.3872 29.1128 24.1452 29.4415 24.2783L41.003 28.9579C41.4752 29.1491 41.8974 28.5942 41.5872 28.19L20.8478 1.16823C20.557 0.789281 19.9512 0.994959 19.9512 1.47266V22.346L28.7539 25.547Z" fill="black"/>
</svg>

<svg xmlns="http://www.w3.org/2000/svg" width="48" height="48" fill="none" viewBox="0 0 48 48">
  <path fill="#000" d="M7.118 19.81l20.74 27.022a.5.5 0 00.896-.305V24.742a.5.5 0 01.688-.464l11.561 4.68c.473.191.895-.364.585-.768L20.848 1.168a.5.5 0 00-.896.305v21.785a.5.5 0 01-.688.464l-11.561-4.68c-.473-.191-.895.364-.585.768z" opacity=".2"/>
  <path fill="#000" d="M7.118 19.81l20.74 27.022a.5.5 0 00.896-.305V24.742a.5.5 0 01.688-.464l11.561 4.68c.473.191.895-.364.585-.768L20.848 1.168a.5.5 0 00-.896.305v21.785a.5.5 0 01-.688.464l-11.561-4.68c-.473-.191-.895.364-.585.768z" opacity=".6"/>
  <path fill="#000" fill-rule="evenodd" d="M28.754 25.547v-.805a.5.5 0 01.688-.464l11.561 4.68c.472.191.894-.364.584-.768L20.847 1.168a.5.5 0 00-.896.305v20.873l8.803 3.201z" clip-rule="evenodd"/>
</svg>
